swiss/communes/0113.svg

<?xml version="1.0" encoding="UTF-8" standalone="no"?>
<!-- Created with Inkscape (http://www.inkscape.org/) -->
<svg
   xmlns:svg="http://www.w3.org/2000/svg"
   xmlns="http://www.w3.org/2000/svg"
   version="1.0"
   width="246.09999"
   height="288.26779"
   id="svg2780">
  <defs
     id="defs2782" />
  <g
     transform="translate(-0.9657556,-791.32675)"
     id="layer1">
    <path
       d="M 1.9657556,792.32675 L 6.4039324,978.73369 C 9.5740505,1111.8815 238.45744,1111.8815 241.62757,978.73369 L 246.06574,792.32675 L 1.9657556,792.32675 z"
       id="path3282"
       style="fill:#d94229;fill-opacity:1;fill-rule:evenodd;stroke:none;stroke-width:2;stroke-linecap:butt;stroke-miterlimit:4;stroke-dashoffset:0;stroke-opacity:1" />
    <path
       d="M 4.21875,82.6875 L 6.1875,165.34375 L 241.84375,165.34375 L 243.8125,82.6875 L 4.21875,82.6875 z"
       transform="translate(0,804.33069)"
       id="rect3133"
       style="opacity:1;color:#000000;fill:#f7e739;fill-opacity:1;fill-rule:evenodd;stroke:#000000;stroke-width:1.00000012px;stroke-linecap:butt;stroke-linejoin:miter;marker:none;marker-start:none;marker-mid:none;marker-end:none;stroke-miterlimit:4;stroke-dasharray:none;stroke-dashoffset:0;stroke-opacity:1;visibility:visible;display:inline;overflow:visible;enable-background:accumulate" />
    <path
       d="M 124.03125,82.6875 L 124.03125,124.3125 L 242.8125,124.03125 L 243.8125,82.6875 L 124.03125,82.6875 z M 124.03125,124.3125 L 5.21875,124.59375 L 6.1875,165.34375 L 124.03125,165.34375 L 124.03125,124.3125 z"
       transform="translate(0,804.33069)"
       id="rect2480"
       style="color:#000000;fill:#151518;fill-opacity:1;fill-rule:evenodd;stroke:none;stroke-width:1.00000012px;stroke-linecap:butt;stroke-linejoin:miter;marker:none;marker-start:none;marker-mid:none;marker-end:none;stroke-miterlimit:4;stroke-dashoffset:0;stroke-opacity:1;visibility:visible;display:inline;overflow:visible;enable-background:accumulate" />
    <path
       d="M 1.9657556,792.32675 L 6.4039324,978.73369 C 9.5740505,1111.8815 238.45744,1111.8815 241.62757,978.73369 L 246.06574,792.32675 L 1.9657556,792.32675 z"
       id="path3446"
       style="fill:none;fill-opacity:1;fill-rule:evenodd;stroke:#000000;stroke-width:2;stroke-linecap:butt;stroke-miterlimit:4;stroke-dashoffset:0;stroke-opacity:1" />
  </g>
</svg>

<svg xmlns="http://www.w3.org/2000/svg" version="1.0" width="246.1" height="288.268"><path d="m1.966 792.327 4.438 186.407c3.17 133.147 232.053 133.147 235.224 0l4.438-186.407H1.966z" style="fill:#d94229;fill-opacity:1;fill-rule:evenodd;stroke:none;stroke-width:2;stroke-linecap:butt;stroke-miterlimit:4;stroke-dashoffset:0;stroke-opacity:1" transform="translate(-.966 -791.327)"/><path d="m4.219 82.688 1.968 82.656h235.657l1.969-82.656H4.219z" transform="translate(-.966 13.004)" style="opacity:1;color:#000;fill:#f7e739;fill-opacity:1;fill-rule:evenodd;stroke:#000;stroke-width:1.00000012px;stroke-linecap:butt;stroke-linejoin:miter;marker:none;marker-start:none;marker-mid:none;marker-end:none;stroke-miterlimit:4;stroke-dasharray:none;stroke-dashoffset:0;stroke-opacity:1;visibility:visible;display:inline;overflow:visible;enable-background:accumulate"/><path d="M124.031 82.688v41.624l118.781-.28 1-41.344h-119.78zm0 41.624-118.812.282.968 40.75h117.844v-41.031z" transform="translate(-.966 13.004)" style="color:#000;fill:#151518;fill-opacity:1;fill-rule:evenodd;stroke:none;stroke-width:1.00000012px;stroke-linecap:butt;stroke-linejoin:miter;marker:none;marker-start:none;marker-mid:none;marker-end:none;stroke-miterlimit:4;stroke-dashoffset:0;stroke-opacity:1;visibility:visible;display:inline;overflow:visible;enable-background:accumulate"/><path d="m1.966 792.327 4.438 186.407c3.17 133.147 232.053 133.147 235.224 0l4.438-186.407H1.966z" style="fill:none;fill-opacity:1;fill-rule:evenodd;stroke:#000;stroke-width:2;stroke-linecap:butt;stroke-miterlimit:4;stroke-dashoffset:0;stroke-opacity:1" transform="translate(-.966 -791.327)"/></svg>
